src/assets/images/yds.svg

<svg width="180" height="22" viewBox="0 0 180 22" fill="none" xmlns="http://www.w3.org/2000/svg">
<g style="mix-blend-mode:luminosity" clip-path="url(#clip0)">
<path d="M2.15746 4.40037C3.349 4.40037 4.31493 3.42351 4.31493 2.2185C4.31493 1.01348 3.349 0.0366211 2.15746 0.0366211C0.965929 0.0366211 0 1.01348 0 2.2185C0 3.42351 0.965929 4.40037 2.15746 4.40037Z" fill="#EE2439"/>
<path d="M49.675 4.39866C50.8666 4.39866 51.8325 3.4218 51.8325 2.21679C51.8325 1.01177 50.8666 0.0349121 49.675 0.0349121C48.4835 0.0349121 47.5176 1.01177 47.5176 2.21679C47.5176 3.4218 48.4835 4.39866 49.675 4.39866Z" fill="#EE2439"/>
<path d="M136.064 4.39866C137.255 4.39866 138.221 3.4218 138.221 2.21679C138.221 1.01177 137.255 0.0349121 136.064 0.0349121C134.872 0.0349121 133.906 1.01177 133.906 2.21679C133.906 3.4218 134.872 4.39866 136.064 4.39866Z" fill="#EE2439"/>
<path d="M97.1887 21.8742C98.3802 21.8742 99.3462 20.8974 99.3462 19.6924C99.3462 18.4874 98.3802 17.5105 97.1887 17.5105C95.9972 17.5105 95.0312 18.4874 95.0312 19.6924C95.0312 20.8974 95.9972 21.8742 97.1887 21.8742Z" fill="#EE2439"/>
<path d="M49.675 21.8742C50.8666 21.8742 51.8325 20.8974 51.8325 19.6924C51.8325 18.4874 50.8666 17.5105 49.675 17.5105C48.4835 17.5105 47.5176 18.4874 47.5176 19.6924C47.5176 20.8974 48.4835 21.8742 49.675 21.8742Z" fill="#EE2439"/>
<path d="M21.595 21.8742C22.7865 21.8742 23.7524 20.8974 23.7524 19.6924C23.7524 18.4874 22.7865 17.5105 21.595 17.5105C20.4034 17.5105 19.4375 18.4874 19.4375 19.6924C19.4375 20.8974 20.4034 21.8742 21.595 21.8742Z" fill="#EE2439"/>
<path d="M41.0325 4.39866C42.224 4.39866 43.1899 3.4218 43.1899 2.21679C43.1899 1.01177 42.224 0.0349121 41.0325 0.0349121C39.8409 0.0349121 38.875 1.01177 38.875 2.21679C38.875 3.4218 39.8409 4.39866 41.0325 4.39866Z" fill="#EE2439"/>
<path d="M21.4288 13.0913C15.0322 13.0913 8.68391 10.045 0.839844 3.95247L3.47291 0.487954C17.6653 11.5089 25.1234 11.5089 39.7431 0.467041L42.3279 3.96641C34.2702 10.052 27.8254 13.0913 21.4288 13.0913Z" fill="#EE2439"/>
<path d="M90.709 11.1743H86.3871C86.3871 4.59385 80.5696 4.40563 79.9079 4.40563H49.6758V0.0349121H79.9147C83.6438 0.0349121 90.709 2.36318 90.709 11.1743Z" fill="#EE2439"/>
<path d="M90.709 11.1743H86.3871C86.3871 4.59385 80.5696 4.40563 79.9079 4.40563H49.6758V0.0349121H79.9147C83.6438 0.0349121 90.709 2.36318 90.709 11.1743Z" fill="#EE2439"/>
<path d="M79.9078 21.8745H49.6758V17.5038H79.9147C80.99 17.4898 86.394 17.1134 86.394 10.9512H90.7158C90.7089 19.595 83.6437 21.8745 79.9078 21.8745Z" fill="#EE2439"/>
<path d="M131.742 21.8746H97.1878V17.5039H131.742C132.714 17.476 133.899 17.0786 133.899 15.322C133.899 13.3492 132.39 13.1401 131.742 13.1401H101.503C98.8972 13.1401 95.0234 11.3974 95.0234 6.58751C95.0234 1.77762 98.8972 0.0349121 101.503 0.0349121H136.057V4.40564H101.503C100.531 4.43352 99.3453 4.83086 99.3453 6.58751C99.3453 8.56026 100.855 8.76939 101.503 8.76939H131.742C134.347 8.76939 138.221 10.5121 138.221 15.322C138.221 20.1319 134.347 21.8746 131.742 21.8746Z" fill="#EE2439"/>
<path d="M143.501 0.125475L144.887 2.14005L146.279 0.125475H146.982C147.003 0.125475 147.016 0.132446 147.016 0.153359C147.023 0.174271 147.023 0.195184 147.01 0.209126L145.224 2.7744V4.40558H144.459V2.76743L142.674 0.202155C142.66 0.188213 142.66 0.1673 142.66 0.146388C142.667 0.125475 142.688 0.118504 142.708 0.118504H143.501V0.125475ZM151.311 0C151.648 0 151.945 0.0627376 152.2 0.181242C152.462 0.306717 152.682 0.467047 152.862 0.676172C153.041 0.885298 153.179 1.12231 153.275 1.40114C153.365 1.673 153.413 1.95881 153.413 2.26553C153.413 2.56527 153.365 2.85805 153.275 3.12991C153.186 3.40177 153.048 3.64575 152.862 3.85488C152.682 4.06401 152.462 4.23131 152.2 4.34981C151.945 4.47529 151.648 4.53105 151.311 4.53105C150.973 4.53105 150.677 4.46831 150.415 4.34981C150.16 4.22433 149.939 4.06401 149.76 3.85488C149.581 3.64575 149.45 3.40875 149.353 3.12991C149.264 2.85805 149.215 2.57224 149.215 2.26553C149.215 1.96578 149.264 1.673 149.353 1.40114C149.443 1.12928 149.581 0.885298 149.76 0.676172C149.939 0.467047 150.153 0.299747 150.415 0.181242C150.677 0.0627376 150.973 0 151.311 0ZM151.311 0.662231C151.09 0.662231 150.904 0.704056 150.739 0.787706C150.573 0.871356 150.435 0.98289 150.318 1.12928C150.208 1.26869 150.125 1.44297 150.063 1.63815C150.008 1.82636 149.98 2.03549 149.98 2.25856C149.98 2.48162 150.008 2.68378 150.063 2.87896C150.125 3.06717 150.208 3.24145 150.318 3.38783C150.428 3.52725 150.573 3.64575 150.739 3.7294C150.904 3.81305 151.097 3.85488 151.311 3.85488C151.524 3.85488 151.717 3.81305 151.883 3.7294C152.048 3.64575 152.186 3.52725 152.296 3.38783C152.407 3.24145 152.496 3.07414 152.551 2.87896C152.613 2.68378 152.641 2.47465 152.641 2.25856C152.641 2.03549 152.613 1.83333 152.551 1.63815C152.496 1.44297 152.414 1.27567 152.296 1.12928C152.186 0.98289 152.048 0.871356 151.883 0.787706C151.717 0.704056 151.524 0.662231 151.311 0.662231ZM157.128 0.125475V2.83714C157.128 2.96958 157.149 3.10203 157.19 3.22053C157.232 3.34601 157.301 3.45057 157.39 3.54119C157.48 3.63181 157.604 3.70152 157.749 3.75729C157.893 3.81305 158.066 3.83397 158.272 3.83397C158.479 3.83397 158.652 3.80608 158.796 3.75729C158.941 3.70849 159.058 3.63181 159.148 3.54119C159.237 3.45057 159.306 3.34601 159.348 3.22053C159.389 3.09506 159.417 2.96958 159.417 2.83714V0.125475H160.175V2.88593C160.175 3.109 160.14 3.31812 160.072 3.51331C160.009 3.70849 159.899 3.88276 159.748 4.03612C159.596 4.18948 159.403 4.30798 159.162 4.39861C158.927 4.48923 158.631 4.53105 158.279 4.53105C157.928 4.53105 157.631 4.48923 157.39 4.39861C157.149 4.30798 156.949 4.18948 156.797 4.03612C156.646 3.88276 156.542 3.71546 156.473 3.51331C156.411 3.31115 156.377 3.10203 156.377 2.88593V0.125475H157.128ZM165.393 0.125475C165.641 0.125475 165.855 0.16033 166.034 0.237009C166.213 0.306717 166.365 0.404309 166.482 0.529785C166.599 0.65526 166.689 0.808619 166.744 0.98289C166.799 1.15716 166.827 1.3384 166.827 1.54056C166.827 1.86122 166.758 2.13308 166.627 2.34918C166.496 2.5583 166.31 2.71863 166.082 2.82319L167.144 4.33587C167.15 4.34981 167.157 4.36375 167.15 4.38466C167.144 4.39861 167.137 4.41255 167.116 4.41255H166.33L165.358 2.95564H164.062V4.41255H163.311V0.125475H165.393ZM164.062 2.37009H165.289C165.524 2.37009 165.71 2.30038 165.855 2.15399C166.006 2.01458 166.075 1.81242 166.075 1.5545C166.075 1.31052 166.006 1.11534 165.875 0.961977C165.744 0.808619 165.544 0.731939 165.283 0.731939H164.056V2.37009H164.062Z" fill="#010101"/>
<path d="M144.432 8.85985C144.77 8.85985 145.059 8.91562 145.307 9.03412C145.563 9.14566 145.776 9.30599 145.942 9.50117C146.107 9.69635 146.238 9.92639 146.321 10.1843C146.41 10.4422 146.452 10.7141 146.452 10.9999C146.452 11.2857 146.41 11.5576 146.321 11.8225C146.238 12.0804 146.107 12.3035 145.942 12.4986C145.776 12.6938 145.563 12.8541 145.307 12.9727C145.059 13.0842 144.763 13.1469 144.432 13.1469H142.605V8.86682H144.432V8.85985ZM143.371 12.5126H144.384C144.604 12.5126 144.797 12.4708 144.963 12.3941C145.135 12.3104 145.273 12.2059 145.383 12.0664C145.494 11.927 145.576 11.7667 145.631 11.5855C145.687 11.4042 145.714 11.209 145.714 10.9999C145.714 10.7908 145.687 10.5956 145.631 10.4143C145.576 10.2331 145.494 10.0728 145.383 9.93336C145.273 9.79394 145.135 9.68938 144.963 9.6127C144.797 9.52905 144.604 9.48723 144.384 9.48723H143.371V12.5126ZM150.222 8.85985V13.14H149.457V8.85985H150.222ZM157.315 10.749C157.342 10.9302 157.349 11.1045 157.349 11.2718C157.349 11.5576 157.308 11.8225 157.225 12.0664C157.149 12.3104 157.032 12.5265 156.867 12.7008C156.708 12.8751 156.501 13.0145 156.253 13.119C156.012 13.2166 155.723 13.2654 155.392 13.2654C155.02 13.2654 154.696 13.2027 154.427 13.0842C154.158 12.9587 153.93 12.7984 153.751 12.5962C153.572 12.3871 153.441 12.1501 153.351 11.8782C153.262 11.6064 153.22 11.3275 153.22 11.0348C153.22 10.6932 153.276 10.3795 153.393 10.1007C153.503 9.82183 153.662 9.57785 153.862 9.37569C154.061 9.17354 154.296 9.01321 154.571 8.90168C154.847 8.79014 155.144 8.73438 155.461 8.73438C155.757 8.73438 156.053 8.78317 156.336 8.88773C156.626 8.98533 156.874 9.13171 157.08 9.3269L156.66 9.81486C156.508 9.67544 156.322 9.56391 156.109 9.4942C155.902 9.41752 155.688 9.37569 155.481 9.37569C155.261 9.37569 155.061 9.41752 154.875 9.50117C154.696 9.57785 154.537 9.68938 154.399 9.83577C154.268 9.97519 154.158 10.1495 154.082 10.3586C154.006 10.5607 153.972 10.7908 153.972 11.0348C153.972 11.2509 153.999 11.46 154.061 11.6552C154.123 11.8434 154.213 12.0176 154.33 12.164C154.454 12.3035 154.599 12.422 154.778 12.5056C154.957 12.5893 155.164 12.6311 155.399 12.6311C155.798 12.6311 156.109 12.5126 156.322 12.2756C156.543 12.0386 156.646 11.7109 156.646 11.2927H155.295V10.7559H157.315V10.749ZM161.106 8.85985V13.14H160.341V8.85985H161.106ZM167.764 8.85985V9.48026H166.269V13.1469H165.504V9.48026H164.001V8.85985H167.764ZM172.231 8.85985L174.044 13.0633C174.051 13.0842 174.051 13.1051 174.044 13.119C174.037 13.133 174.023 13.1469 174.002 13.1469H173.299L173.003 12.4429H170.756L170.48 13.1469H169.777C169.75 13.1469 169.736 13.14 169.729 13.119C169.722 13.1051 169.729 13.0842 169.736 13.0633L171.48 8.85985H172.231ZM170.963 11.9131H172.782L171.859 9.67544L170.963 11.9131ZM177.628 8.85985V12.5265H179.999V13.1469H176.87V8.86682H177.628V8.85985Z" fill="#010101"/>
<path d="M142.964 20.9055C143.185 21.0379 143.419 21.1425 143.668 21.2261C143.916 21.3098 144.198 21.3516 144.515 21.3516C144.826 21.3516 145.074 21.3028 145.26 21.1983C145.446 21.0937 145.536 20.9334 145.536 20.7242C145.536 20.6336 145.508 20.543 145.46 20.4663C145.411 20.3896 145.329 20.3199 145.212 20.2572C145.101 20.2014 144.97 20.1526 144.826 20.1108C144.674 20.069 144.522 20.0272 144.357 19.9853C144.191 19.9435 144.026 19.8877 143.854 19.832C143.688 19.7692 143.537 19.6926 143.392 19.595C143.233 19.4904 143.116 19.3649 143.027 19.2255C142.944 19.0861 142.902 18.9118 142.902 18.7027C142.902 18.4866 142.944 18.3054 143.027 18.152C143.116 17.9986 143.233 17.8732 143.385 17.7756C143.537 17.678 143.702 17.6083 143.895 17.5595C144.088 17.5177 144.295 17.4898 144.508 17.4898C144.819 17.4898 145.115 17.5316 145.398 17.6152C145.68 17.6919 145.928 17.7895 146.135 17.9011L145.915 18.4727C145.715 18.3681 145.494 18.2775 145.267 18.2078C145.039 18.1381 144.798 18.1032 144.557 18.1032C144.433 18.1032 144.315 18.1171 144.205 18.1381C144.095 18.1659 143.998 18.2008 143.909 18.2496C143.819 18.2984 143.75 18.3611 143.695 18.4378C143.64 18.5145 143.619 18.5981 143.619 18.7027C143.619 18.8003 143.647 18.8839 143.695 18.9537C143.75 19.0234 143.826 19.0861 143.916 19.1419C144.033 19.2116 144.164 19.2673 144.315 19.3161C144.467 19.358 144.619 19.4068 144.777 19.4416C144.936 19.4834 145.094 19.5253 145.253 19.5741C145.411 19.6229 145.556 19.6856 145.694 19.7623C145.887 19.8668 146.025 19.9993 146.115 20.1457C146.204 20.299 146.252 20.4803 146.252 20.7033C146.252 20.9264 146.211 21.1146 146.121 21.2749C146.032 21.4283 145.908 21.5607 145.749 21.6653C145.598 21.7699 145.411 21.8396 145.205 21.8884C144.998 21.9372 144.77 21.9651 144.522 21.9651C144.157 21.9651 143.833 21.9163 143.55 21.8256C143.261 21.735 143.006 21.6095 142.771 21.4492L142.964 20.9055ZM152.573 17.5943V18.2147H151.077V21.8814H150.312V18.2147H148.81V17.5943H152.573ZM157.226 17.4758C157.564 17.4758 157.853 17.5386 158.115 17.6571C158.377 17.7825 158.597 17.9429 158.777 18.152C158.956 18.3611 159.094 18.5981 159.19 18.877C159.28 19.1488 159.328 19.4346 159.328 19.7414C159.328 20.0411 159.28 20.3339 159.19 20.6057C159.101 20.8776 158.963 21.1216 158.777 21.3307C158.597 21.5398 158.377 21.7071 158.115 21.8256C157.86 21.9511 157.564 22.0069 157.226 22.0069C156.888 22.0069 156.592 21.9441 156.33 21.8256C156.075 21.7002 155.854 21.5398 155.675 21.3307C155.496 21.1216 155.365 20.8846 155.268 20.6057C155.179 20.3339 155.13 20.0481 155.13 19.7414C155.13 19.4416 155.179 19.1488 155.268 18.877C155.358 18.6051 155.496 18.3611 155.675 18.152C155.854 17.9429 156.068 17.7756 156.33 17.6571C156.592 17.5316 156.888 17.4758 157.226 17.4758ZM157.226 18.1311C157.005 18.1311 156.819 18.1729 156.654 18.2566C156.488 18.3402 156.35 18.4517 156.233 18.5981C156.123 18.7376 156.04 18.9118 155.978 19.107C155.923 19.2952 155.895 19.5043 155.895 19.7274C155.895 19.9505 155.923 20.1526 155.978 20.3478C156.04 20.536 156.123 20.7103 156.233 20.8567C156.344 20.9961 156.488 21.1146 156.654 21.1983C156.819 21.2819 157.012 21.3237 157.226 21.3237C157.439 21.3237 157.632 21.2819 157.798 21.1983C157.963 21.1146 158.101 20.9961 158.211 20.8567C158.322 20.7103 158.411 20.543 158.467 20.3478C158.529 20.1526 158.556 19.9435 158.556 19.7274C158.556 19.5113 158.529 19.3022 158.467 19.107C158.411 18.9118 158.329 18.7445 158.211 18.5981C158.101 18.4517 157.963 18.3402 157.798 18.2566C157.632 18.1799 157.439 18.1311 157.226 18.1311ZM164.401 17.5943C164.649 17.5943 164.863 17.6292 165.042 17.7059C165.222 17.7756 165.373 17.8732 165.49 17.9986C165.608 18.1241 165.697 18.2775 165.752 18.4517C165.807 18.626 165.835 18.8073 165.835 19.0094C165.835 19.3301 165.766 19.6019 165.635 19.818C165.504 20.0272 165.318 20.1875 165.091 20.2921L166.152 21.8047C166.159 21.8187 166.159 21.8326 166.159 21.8535C166.152 21.8675 166.145 21.8814 166.124 21.8814H165.339L164.367 20.4245H163.071V21.8814H162.32V17.6013H164.401V17.5943ZM163.071 19.8459H164.298C164.532 19.8459 164.718 19.7762 164.863 19.6298C165.015 19.4904 165.084 19.2883 165.084 19.0303C165.084 18.7863 165.015 18.5912 164.884 18.4378C164.753 18.2844 164.553 18.2078 164.291 18.2078H163.064V19.8459H163.071ZM169.054 17.5943L170.439 19.6089L171.832 17.5943H172.535C172.556 17.5943 172.569 17.6013 172.569 17.6222C172.576 17.6431 172.576 17.664 172.562 17.678L170.777 20.2433V21.8744H170.012V20.2433L168.227 17.678C168.213 17.664 168.213 17.6431 168.213 17.6222C168.22 17.6013 168.241 17.5943 168.261 17.5943H169.054Z" fill="#010101"/>
</g>
<defs>
<clipPath id="clip0">
<rect width="180" height="22" fill="white"/>
</clipPath>
</defs>
</svg>

<svg width="180" height="22" fill="none" xmlns="http://www.w3.org/2000/svg"><g style="mix-blend-mode:luminosity" clip-path="url(#clip0)"><path d="M2.157 4.4a2.17 2.17 0 002.158-2.182A2.17 2.17 0 002.157.037C.966.037 0 1.013 0 2.219 0 3.424.966 4.4 2.157 4.4zm47.518-.001c1.192 0 2.158-.977 2.158-2.182S50.867.035 49.675.035c-1.191 0-2.157.977-2.157 2.182s.965 2.182 2.157 2.182zm86.389 0c1.191 0 2.157-.977 2.157-2.182s-.966-2.182-2.157-2.182c-1.192 0-2.158.977-2.158 2.182s.966 2.182 2.158 2.182zM97.189 21.874c1.191 0 2.157-.977 2.157-2.182s-.966-2.181-2.157-2.181c-1.192 0-2.158.976-2.158 2.181s.966 2.182 2.158 2.182zm-47.514 0c1.192 0 2.158-.977 2.158-2.182s-.966-2.181-2.158-2.181c-1.191 0-2.157.976-2.157 2.181s.965 2.182 2.157 2.182zm-28.08 0c1.192 0 2.157-.977 2.157-2.182s-.965-2.181-2.157-2.181c-1.192 0-2.157.976-2.157 2.181s.965 2.182 2.157 2.182zM41.032 4.399c1.192 0 2.158-.977 2.158-2.182S42.224.035 41.033.035c-1.192 0-2.158.977-2.158 2.182s.966 2.182 2.157 2.182z" fill="#EE2439"/><path d="M21.429 13.091c-6.397 0-12.745-3.046-20.59-9.139L3.474.488c14.192 11.02 21.65 11.02 36.27-.021l2.585 3.5c-8.058 6.085-14.503 9.124-20.9 9.124zm69.28-1.917h-4.322c0-6.58-5.817-6.768-6.48-6.768h-30.23V.035h30.239c3.729 0 10.794 2.328 10.794 11.14z" fill="#EE2439"/><path d="M90.709 11.174h-4.322c0-6.58-5.817-6.768-6.48-6.768h-30.23V.035h30.239c3.729 0 10.794 2.328 10.794 11.14z" fill="#EE2439"/><path d="M79.908 21.875H49.676v-4.371h30.239c1.075-.014 6.479-.39 6.479-6.553h4.322c-.007 8.644-7.072 10.924-10.808 10.924zm51.834 0H97.188v-4.371h34.554c.972-.028 2.157-.425 2.157-2.182 0-1.973-1.509-2.182-2.157-2.182h-30.239c-2.606 0-6.48-1.743-6.48-6.552 0-4.81 3.874-6.553 6.48-6.553h34.554v4.37h-34.554c-.972.029-2.158.426-2.158 2.183 0 1.972 1.51 2.181 2.158 2.181h30.239c2.605 0 6.479 1.743 6.479 6.553s-3.874 6.553-6.479 6.553z" fill="#EE2439"/><path d="M143.501.125l1.386 2.015 1.392-2.015h.703c.021 0 .034.007.034.028.007.021.007.042-.006.056l-1.786 2.565v1.632h-.765V2.767L142.674.202c-.014-.014-.014-.035-.014-.056.007-.02.028-.027.048-.027h.793v.006zm7.81-.125c.337 0 .634.063.889.181.262.126.482.286.662.495.179.21.317.446.413.725a2.755 2.755 0 010 1.729 2.034 2.034 0 01-.413.725c-.18.209-.4.376-.662.495-.255.125-.552.181-.889.181-.338 0-.634-.063-.896-.181a2.017 2.017 0 01-.655-.495 2.2 2.2 0 01-.407-.725 2.752 2.752 0 010-1.729c.09-.272.228-.516.407-.725a1.86 1.86 0 01.655-.495c.262-.118.558-.181.896-.181zm0 .662a1.23 1.23 0 00-.572.126 1.246 1.246 0 00-.421.341c-.11.14-.193.314-.255.51a2.217 2.217 0 00-.083.62c0 .223.028.425.083.62.062.188.145.362.255.509.11.14.255.258.421.341.165.084.358.126.572.126.213 0 .406-.042.572-.126.165-.083.303-.202.413-.341.111-.147.2-.314.255-.509.062-.195.09-.404.09-.62 0-.224-.028-.426-.09-.62a1.395 1.395 0 00-.255-.51 1.164 1.164 0 00-.413-.341 1.261 1.261 0 00-.572-.126zm5.817-.537v2.712c0 .133.021.265.062.384.042.125.111.23.2.32.09.09.214.16.359.216.144.056.317.077.523.077.207 0 .38-.028.524-.077a.893.893 0 00.352-.216.827.827 0 00.2-.32c.041-.126.069-.251.069-.384V.125h.758v2.76c0 .224-.035.433-.103.628a1.32 1.32 0 01-.324.523 1.595 1.595 0 01-.586.363c-.235.09-.531.132-.883.132-.351 0-.648-.042-.889-.132a1.626 1.626 0 01-.593-.363 1.34 1.34 0 01-.324-.523 2.13 2.13 0 01-.096-.627V.126h.751zm8.265 0c.248 0 .462.035.641.112.179.07.331.167.448.293.117.125.207.279.262.453.055.174.083.355.083.558 0 .32-.069.592-.2.808-.131.21-.317.37-.545.474l1.062 1.513c.006.014.013.028.006.049-.006.014-.013.028-.034.028h-.786l-.972-1.457h-1.296v1.457h-.751V.125h2.082zm-1.331 2.245h1.227c.235 0 .421-.07.566-.216.151-.14.22-.342.22-.6a.878.878 0 00-.2-.592c-.131-.153-.331-.23-.592-.23h-1.227V2.37h.006zm-19.63 6.49c.338 0 .627.056.875.174.256.112.469.272.635.467.165.195.296.425.379.683.089.258.131.53.131.816 0 .286-.042.558-.131.822a1.977 1.977 0 01-.379.677 1.837 1.837 0 01-.635.474 2.131 2.131 0 01-.875.174h-1.827v-4.28h1.827V8.86zm-1.061 3.653h1.013c.22 0 .413-.042.579-.119.172-.084.31-.188.42-.328.111-.139.193-.3.248-.48.056-.182.083-.377.083-.586 0-.21-.027-.404-.083-.586a1.429 1.429 0 00-.248-.48 1.08 1.08 0 00-.42-.321 1.27 1.27 0 00-.579-.126h-1.013v3.026zm6.851-3.653v4.28h-.765V8.86h.765zm7.093 1.889c.027.181.034.355.034.523 0 .286-.041.55-.124.794a1.61 1.61 0 01-.358.635 1.725 1.725 0 01-.614.418c-.241.098-.53.146-.861.146-.372 0-.696-.062-.965-.18a2.037 2.037 0 01-.676-.489 2.099 2.099 0 01-.4-.718 2.68 2.68 0 01-.131-.843 2.4 2.4 0 01.173-.934 2.13 2.13 0 011.178-1.199 2.52 2.52 0 011.765-.014c.29.097.538.244.744.439l-.42.488a1.506 1.506 0 00-.551-.32 1.82 1.82 0 00-.628-.12c-.22 0-.42.043-.606.126a1.415 1.415 0 00-.476.335 1.51 1.51 0 00-.317.523c-.076.202-.11.432-.11.676 0 .216.027.425.089.62.062.188.152.363.269.509.124.14.269.258.448.342.179.083.386.125.621.125.399 0 .71-.118.923-.355.221-.237.324-.565.324-.983h-1.351v-.537h2.02v-.007zm3.791-1.89v4.281h-.765V8.86h.765zm6.658 0v.621h-1.495v3.667h-.765V9.48h-1.503v-.62h3.763zm4.467 0l1.813 4.204c.007.021.007.042 0 .056a.047.047 0 01-.042.028h-.703l-.296-.704h-2.247l-.276.704h-.703c-.027 0-.041-.007-.048-.028-.007-.014 0-.035.007-.056l1.744-4.203h.751zm-1.268 3.054h1.819l-.923-2.238-.896 2.238zm6.665-3.053v3.667h2.371v.62h-3.129v-4.28h.758V8.86zm-34.664 12.045c.221.133.455.237.704.321.248.084.53.126.847.126.311 0 .559-.05.745-.154a.51.51 0 00.276-.474.492.492 0 00-.076-.258.647.647 0 00-.248-.209 2.291 2.291 0 00-.386-.146 24.064 24.064 0 00-.469-.126c-.166-.041-.331-.097-.503-.153a2.224 2.224 0 01-.462-.237 1.223 1.223 0 01-.365-.37 1.007 1.007 0 01-.125-.522c0-.216.042-.398.125-.551.089-.153.206-.279.358-.376.152-.098.317-.168.51-.216.193-.042.4-.07.613-.07.311 0 .607.042.89.125.282.077.53.175.737.286l-.22.572a3.85 3.85 0 00-.648-.265 2.436 2.436 0 00-.71-.105c-.124 0-.242.014-.352.035-.11.028-.207.063-.296.112a.622.622 0 00-.214.188.429.429 0 00-.076.265c0 .097.028.18.076.25.055.07.131.133.221.189.117.07.248.125.399.174.152.042.304.09.462.126.159.041.317.083.476.132.158.049.303.112.441.188.193.105.331.237.421.384.089.153.137.334.137.557 0 .223-.041.412-.131.572a1.165 1.165 0 01-.372.39 1.6 1.6 0 01-.544.223 2.973 2.973 0 01-.683.077 3.18 3.18 0 01-.972-.14 2.908 2.908 0 01-.779-.376l.193-.544zm9.609-3.31v.62h-1.496v3.666h-.765v-3.666h-1.502v-.62h3.763zm4.653-.12c.338 0 .627.064.889.182.262.125.482.286.662.495.179.21.317.446.413.725a2.755 2.755 0 010 1.729 2.033 2.033 0 01-.413.725c-.18.209-.4.376-.662.495-.255.125-.551.18-.889.18-.338 0-.634-.062-.896-.18a2.016 2.016 0 01-.655-.495 2.2 2.2 0 01-.407-.725 2.751 2.751 0 010-1.729c.09-.272.228-.516.407-.725a1.86 1.86 0 01.655-.495 2.04 2.04 0 01.896-.181zm0 .656a1.234 1.234 0 00-.993.467 1.61 1.61 0 00-.255.509 2.217 2.217 0 00-.083.62c0 .224.028.426.083.62.062.189.145.363.255.51.111.14.255.258.421.341.165.084.358.126.572.126.213 0 .406-.042.572-.126.165-.083.303-.202.413-.341.111-.147.2-.314.256-.51a2.04 2.04 0 00.089-.62c0-.216-.027-.425-.089-.62a1.413 1.413 0 00-.256-.509 1.163 1.163 0 00-.413-.341 1.36 1.36 0 00-.572-.126zm7.175-.537c.248 0 .462.035.641.112.18.07.331.167.448.293.118.125.207.279.262.453.055.174.083.355.083.557 0 .321-.069.593-.2.809a1.25 1.25 0 01-.544.474l1.061 1.513c.007.014.007.028.007.049-.007.014-.014.027-.035.027h-.785l-.972-1.457h-1.296v1.457h-.751v-4.28h2.081v-.007zm-1.33 2.252h1.227c.234 0 .42-.07.565-.216.152-.14.221-.342.221-.6a.878.878 0 00-.2-.592c-.131-.154-.331-.23-.593-.23h-1.227v1.638h.007zm5.983-2.252l1.385 2.015 1.393-2.015h.703c.021 0 .034.007.034.028.007.021.007.042-.007.056l-1.785 2.565v1.631h-.765v-1.63l-1.785-2.566c-.014-.014-.014-.035-.014-.056.007-.02.028-.028.048-.028h.793z" fill="#010101"/></g><defs><clipPath id="clip0"><path fill="#fff" d="M0 0h180v22H0z"/></clipPath></defs></svg>
